X:01
T: Lenawee Reel
S: Kane Sisters, The Well Tempered Bow
M: 4/4
L: 1/8
Z: Contributed 20040220192423 by Zina Lee zlee@ntw.net
K: D dorian
|D~d3 dcAG | [A,3F3] E {G} EDCE | Dd{e}d^c dfeg | fage f{a}f2 g |
| {a}gf{a}fe fdcA | dfed cAGE | DddB cAGE | CDEC E{G/E/}DCE |
| D3 d dcAG | [A,3F3] E {G} EDCE | Dd{e}d^c dfeg | fage f{a}f2 g |
| {a}gf{a}fe fdcA | dfed cAGE | DddB cAGE | CDEC EDCE ||
| G,A,DE FEDC | ~_B,3 B, {C}B,A,G,B, | ~A,2 DC DEFE | Ddd^c defg |
| {a}gf{a}fe fdcA | dfed cAGE | DddB cAGE | CDEC EDCE : ||
